themes/stellar/source/img/svg/2659360.svg

<svg id="Capa_1" enable-background="new 0 0 510 510" height="512" viewBox="0 0 510 510" width="512" xmlns="http://www.w3.org/2000/svg" xmlns:xlink="http://www.w3.org/1999/xlink"><linearGradient id="SVGID_1_" gradientTransform="matrix(.994 .11 -.11 .994 -28.962 -29.776)" gradientUnits="userSpaceOnUse" x1="172.48" x2="497.848" y1="110.639" y2="436.007"><stop offset="0" stop-color="#ffa936"/><stop offset=".4112" stop-color="#ff8548"/><stop offset=".7781" stop-color="#ff6c54"/><stop offset="1" stop-color="#ff6359"/></linearGradient><linearGradient id="SVGID_2_" gradientUnits="userSpaceOnUse" x1="490.487" x2="466.43" y1="159.015" y2="164.322"><stop offset="0" stop-color="#f82814" stop-opacity="0"/><stop offset="1" stop-color="#c0272d"/></linearGradient><linearGradient id="lg1"><stop offset="0" stop-color="#cdec7a"/><stop offset=".2157" stop-color="#b0e995"/><stop offset=".5613" stop-color="#87e4bb"/><stop offset=".8347" stop-color="#6ee1d2"/><stop offset="1" stop-color="#65e0db"/></linearGradient><linearGradient id="SVGID_3_" gradientTransform="matrix(.983 -.185 .185 .983 55.608 42.369)" gradientUnits="userSpaceOnUse" x1="15.52" x2="340.888" xlink:href="#lg1" y1="104.705" y2="430.073"/><linearGradient id="lg2"><stop offset="0" stop-color="#cdec7a" stop-opacity="0"/><stop offset=".2354" stop-color="#9ad57d" stop-opacity=".235"/><stop offset=".6035" stop-color="#51b482" stop-opacity=".604"/><stop offset=".8679" stop-color="#239f85" stop-opacity=".868"/><stop offset="1" stop-color="#119786"/></linearGradient><linearGradient id="SVGID_4_" gradientUnits="userSpaceOnUse" x1="491.682" x2="450.637" xlink:href="#lg2" y1="256.546" y2="256.546"/><linearGradient id="SVGID_5_" gradientUnits="userSpaceOnUse" x1="176.731" x2="176.731" xlink:href="#lg2" y1="466.917" y2="442.601"/><linearGradient id="SVGID_6_" gradientUnits="userSpaceOnUse" x1="88.264" x2="413.632" y1="111.753" y2="437.121"><stop offset="0" stop-color="#f8f6fb"/><stop offset="1" stop-color="#efdcfb"/></linearGradient><linearGradient id="SVGID_7_" gradientUnits="userSpaceOnUse" x1="112.768" x2="430.112" y1="101.155" y2="514.021"><stop offset="0" stop-color="#18cefb"/><stop offset=".2969" stop-color="#2bb9f9"/><stop offset=".7345" stop-color="#42a0f7"/><stop offset="1" stop-color="#4a97f6"/></linearGradient><linearGradient id="SVGID_8_" gradientUnits="userSpaceOnUse" x1="75.588" x2="214.616" y1="316.53" y2="497.406"><stop offset="0" stop-color="#cdec7a"/><stop offset=".2154" stop-color="#b0e995" stop-opacity=".784"/><stop offset=".5604" stop-color="#87e4bb" stop-opacity=".439"/><stop offset=".8334" stop-color="#6ee1d2" stop-opacity=".165"/><stop offset=".9985" stop-color="#65e0db" stop-opacity="0"/></linearGradient><linearGradient id="SVGID_9_" gradientUnits="userSpaceOnUse" x1="198.822" x2="366.499" xlink:href="#lg1" y1="288.474" y2="506.622"/><linearGradient id="SVGID_10_" gradientUnits="userSpaceOnUse" x1="117.242" x2="171.618" y1="131.922" y2="202.666"><stop offset="0" stop-color="#ffd945"/><stop offset=".3043" stop-color="#ffcd3e"/><stop offset=".8558" stop-color="#ffad2b"/><stop offset="1" stop-color="#ffa325"/></linearGradient><g><path d="m426.926 470.539-386.877-42.878c-18.601-2.061-32.008-18.811-29.947-37.412l35.559-320.841c2.062-18.601 18.812-32.009 37.412-29.947l386.877 42.878c18.601 2.062 32.009 18.812 29.947 37.412l-35.559 320.841c-2.061 18.601-18.811 32.009-37.412 29.947z" fill="url(#SVGID_1_)"/><path d="m499.897 119.752-14.02 126.534-31.162-165.634 15.241 1.688c18.595 2.058 32 18.806 29.941 37.412z" fill="url(#SVGID_2_)"/><path d="m482.373 410.94-382.536 71.964c-18.392 3.46-36.107-8.645-39.567-27.037l-59.68-317.241c-3.46-18.392 8.645-36.107 27.037-39.567l382.536-71.964c18.392-3.46 36.107 8.645 39.567 27.037l59.68 317.241c3.46 18.393-8.645 36.108-27.037 39.567z" fill="url(#SVGID_3_)"/><path d="m457.896 97.546v317.999l24.476-4.605c18.392-3.46 30.497-21.175 27.037-39.567z" fill="url(#SVGID_4_)"/><path d="m58.45 446.187 1.821 9.68c3.46 18.392 21.175 30.497 39.567 27.037l195.175-36.717z" fill="url(#SVGID_5_)"/><g><path d="m424.01 448.166h-389.245c-18.715 0-33.886-15.171-33.886-33.886v-322.806c0-18.715 15.171-33.886 33.886-33.886h389.245c18.715 0 33.886 15.171 33.886 33.886v322.806c0 18.715-15.171 33.886-33.886 33.886z" fill="url(#SVGID_6_)"/><path d="m392.279 416.326h-325.782c-15.663 0-28.361-12.698-28.361-28.361v-270.175c0-15.663 12.698-28.361 28.361-28.361h325.782c15.663 0 28.361 12.698 28.361 28.361v270.175c0 15.663-12.698 28.361-28.361 28.361z" fill="url(#SVGID_7_)"/><g><path d="m252.069 416.326h-185.567c-15.666 0-28.37-12.694-28.37-28.359v-44.29l47.082-57.228c15.538-18.903 44.46-18.903 60.009 0l29.315 35.64z" fill="url(#SVGID_8_)"/><path d="m420.643 316.75v71.217c0 15.666-12.704 28.359-28.37 28.359h-295.268l77.532-94.237 95.246-115.783c15.538-18.892 44.471-18.892 60.009 0z" fill="url(#SVGID_9_)"/></g><circle cx="137.225" cy="157.919" fill="url(#SVGID_10_)" r="40.219"/></g></g></svg>

<svg height="512" viewBox="0 0 510 510" width="512" xmlns="http://www.w3.org/2000/svg" xmlns:xlink="http://www.w3.org/1999/xlink"><linearGradient id="c" gradientTransform="rotate(6.28 255.57 -277.231)" gradientUnits="userSpaceOnUse" x1="172.48" x2="497.848" y1="110.639" y2="436.007"><stop offset="0" stop-color="#ffa936"/><stop offset=".411" stop-color="#ff8548"/><stop offset=".778" stop-color="#ff6c54"/><stop offset="1" stop-color="#ff6359"/></linearGradient><linearGradient id="d" gradientUnits="userSpaceOnUse" x1="490.487" x2="466.43" y1="159.015" y2="164.322"><stop offset="0" stop-color="#f82814" stop-opacity="0"/><stop offset="1" stop-color="#c0272d"/></linearGradient><linearGradient id="a"><stop offset="0" stop-color="#cdec7a"/><stop offset=".216" stop-color="#b0e995"/><stop offset=".561" stop-color="#87e4bb"/><stop offset=".835" stop-color="#6ee1d2"/><stop offset="1" stop-color="#65e0db"/></linearGradient><linearGradient id="e" gradientTransform="rotate(-10.66 254.843 -276.812)" gradientUnits="userSpaceOnUse" x1="15.52" x2="340.888" xlink:href="#a" y1="104.705" y2="430.073"/><linearGradient id="b"><stop offset="0" stop-color="#cdec7a" stop-opacity="0"/><stop offset=".235" stop-color="#9ad57d" stop-opacity=".235"/><stop offset=".604" stop-color="#51b482" stop-opacity=".604"/><stop offset=".868" stop-color="#239f85" stop-opacity=".868"/><stop offset="1" stop-color="#119786"/></linearGradient><linearGradient id="f" gradientUnits="userSpaceOnUse" x1="491.682" x2="450.637" xlink:href="#b" y1="256.546" y2="256.546"/><linearGradient id="g" gradientUnits="userSpaceOnUse" x1="176.731" x2="176.731" xlink:href="#b" y1="466.917" y2="442.601"/><linearGradient id="h" gradientUnits="userSpaceOnUse" x1="88.264" x2="413.632" y1="111.753" y2="437.121"><stop offset="0" stop-color="#f8f6fb"/><stop offset="1" stop-color="#efdcfb"/></linearGradient><linearGradient id="i" gradientUnits="userSpaceOnUse" x1="112.768" x2="430.112" y1="101.155" y2="514.021"><stop offset="0" stop-color="#18cefb"/><stop offset=".297" stop-color="#2bb9f9"/><stop offset=".735" stop-color="#42a0f7"/><stop offset="1" stop-color="#4a97f6"/></linearGradient><linearGradient id="j" gradientUnits="userSpaceOnUse" x1="75.588" x2="214.616" y1="316.53" y2="497.406"><stop offset="0" stop-color="#cdec7a"/><stop offset=".215" stop-color="#b0e995" stop-opacity=".784"/><stop offset=".56" stop-color="#87e4bb" stop-opacity=".439"/><stop offset=".833" stop-color="#6ee1d2" stop-opacity=".165"/><stop offset=".999" stop-color="#65e0db" stop-opacity="0"/></linearGradient><linearGradient id="k" gradientUnits="userSpaceOnUse" x1="198.822" x2="366.499" xlink:href="#a" y1="288.474" y2="506.622"/><linearGradient id="l" gradientUnits="userSpaceOnUse" x1="117.242" x2="171.618" y1="131.922" y2="202.666"><stop offset="0" stop-color="#ffd945"/><stop offset=".304" stop-color="#ffcd3e"/><stop offset=".856" stop-color="#ffad2b"/><stop offset="1" stop-color="#ffa325"/></linearGradient><path d="M426.926 470.539L40.049 427.661C21.448 425.6 8.041 408.85 10.102 390.249L45.661 69.408c2.062-18.601 18.812-32.009 37.412-29.947L469.95 82.339c18.601 2.062 32.009 18.812 29.947 37.412l-35.559 320.841c-2.061 18.601-18.811 32.009-37.412 29.947z" fill="url(#c)"/><path d="M499.897 119.752l-14.02 126.534-31.162-165.634 15.241 1.688c18.595 2.058 32 18.806 29.941 37.412z" fill="url(#d)"/><path d="M482.373 410.94L99.837 482.904c-18.392 3.46-36.107-8.645-39.567-27.037L.59 138.626c-3.46-18.392 8.645-36.107 27.037-39.567l382.536-71.964c18.392-3.46 36.107 8.645 39.567 27.037l59.68 317.241c3.46 18.393-8.645 36.108-27.037 39.567z" fill="url(#e)"/><path d="M457.896 97.546v317.999l24.476-4.605c18.392-3.46 30.497-21.175 27.037-39.567z" fill="url(#f)"/><path d="M58.45 446.187l1.821 9.68c3.46 18.392 21.175 30.497 39.567 27.037l195.175-36.717z" fill="url(#g)"/><path d="M424.01 448.166H34.765C16.05 448.166.879 432.995.879 414.28V91.474c0-18.715 15.171-33.886 33.886-33.886H424.01c18.715 0 33.886 15.171 33.886 33.886V414.28c0 18.715-15.171 33.886-33.886 33.886z" fill="url(#h)"/><path d="M392.279 416.326H66.497c-15.663 0-28.361-12.698-28.361-28.361V117.79c0-15.663 12.698-28.361 28.361-28.361h325.782c15.663 0 28.361 12.698 28.361 28.361v270.175c0 15.663-12.698 28.361-28.361 28.361z" fill="url(#i)"/><path d="M252.069 416.326H66.502c-15.666 0-28.37-12.694-28.37-28.359v-44.29l47.082-57.228c15.538-18.903 44.46-18.903 60.009 0l29.315 35.64z" fill="url(#j)"/><path d="M420.643 316.75v71.217c0 15.666-12.704 28.359-28.37 28.359H97.005l77.532-94.237 95.246-115.783c15.538-18.892 44.471-18.892 60.009 0z" fill="url(#k)"/><circle cx="137.225" cy="157.919" fill="url(#l)" r="40.219"/></svg>
